X: 1
T:Rakes of Clonmel, The
T:Ben Kelly's Delight
R:jig
M:6/8
L:1/8
K:Ador
B|cBA GED|EAA A2B|cBc edc|BGG GBd|!
gfg ege|dBG Bcd|ecA GED|EAA A2:|!
a|aea aed|cAA A2g|gdg gdc|BGG GAB|!
cBc dcd|edc Bcd|ecA GED|EAA A2:|!
G|A2a aga|bge e2f|gfg bge|dBG GAB|!
cBc dcd|edc Bcd|ecA GED|EAA A2:|!
